include/SugarObjects/templates/file/icons/sidebar/modules/file.svg

<?xml version="1.0" encoding="UTF-8" standalone="no"?>
<svg
   xmlns:dc="http://purl.org/dc/elements/1.1/"
   xmlns:cc="http://creativecommons.org/ns#"
   xmlns:rdf="http://www.w3.org/1999/02/22-rdf-syntax-ns#"
   xmlns:svg="http://www.w3.org/2000/svg"
   xmlns="http://www.w3.org/2000/svg"
   xmlns:sodipodi="http://sodipodi.sourceforge.net/DTD/sodipodi-0.dtd"
   xmlns:inkscape="http://www.inkscape.org/namespaces/inkscape"
   width="30px"
   height="30px"
   viewBox="0 0 30 30"
   version="1.1"
   id="svg2"
   inkscape:version="0.48.4 r9939"
   sodipodi:docname="file.svg">
  <metadata
     id="metadata27">
    <rdf:RDF>
      <cc:Work
         rdf:about="">
        <dc:format>image/svg+xml</dc:format>
        <dc:type
           rdf:resource="http://purl.org/dc/dcmitype/StillImage" />
        <dc:title>my_pdf_templates_dark</dc:title>
      </cc:Work>
    </rdf:RDF>
  </metadata>
  <sodipodi:namedview
     pagecolor="#ffffff"
     bordercolor="#666666"
     borderopacity="1"
     objecttolerance="10"
     gridtolerance="10"
     guidetolerance="10"
     inkscape:pageopacity="0"
     inkscape:pageshadow="2"
     inkscape:window-width="1920"
     inkscape:window-height="1056"
     id="namedview25"
     showgrid="false"
     inkscape:zoom="11.125147"
     inkscape:cx="-17.036966"
     inkscape:cy="24.368883"
     inkscape:window-x="1920"
     inkscape:window-y="24"
     inkscape:window-maximized="1"
     inkscape:current-layer="Page-1" />
  <!-- Generator: Sketch 39.1 (31720) - http://www.bohemiancoding.com/sketch -->
  <title
     id="title4">my_pdf_templates_dark</title>
  <desc
     id="desc6">Created with Sketch.</desc>
  <defs
     id="defs8" />
  <g
     id="Page-1"
     stroke="none"
     stroke-width="1"
     fill="none"
     fill-rule="evenodd">
    <g
       id="my_pdf_templates_dark"
       fill="#778591"
       style="fill:#ffffff">
      <g
         id="g12"
         transform="translate(4.000000, 1.000000)"
         style="fill:#ffffff">
        <polygon
           id="Fill-1"
           points="11.2897288 16.4418305 21.9243051 5.80576271 21.9243051 4.33623729 20.9906102 3.40254237 7.95132203 16.4418305"
           style="fill:#ffffff" />
        <polygon
           id="Fill-2"
           points="6.71484746 16.4418305 20.3731186 2.78505085 18.7037288 1.11566102 3.3779322 16.4418305"
           style="fill:#ffffff" />
        <polygon
           id="Fill-3"
           points="21.9243051 11.616 17.0984746 16.4418305 21.9243051 16.4418305"
           style="fill:#ffffff" />
        <polygon
           id="Fill-4"
           points="21.9243051 7.04261017 12.5250847 16.4418305 15.862 16.4418305 21.9243051 10.3810169"
           style="fill:#ffffff" />
        <polygon
           id="Fill-5"
           points="6.09847458 0 0.0756949153 6.02277966 0.0756949153 9.3600678 9.43576271 0"
           style="fill:#ffffff" />
        <polygon
           id="Fill-6"
           points="18.0862373 0.498169492 17.5880678 0 15.246 0 0.0756949153 15.1703051 0.0756949153 16.4418305 2.14108475 16.4418305"
           style="fill:#ffffff" />
        <polygon
           id="Fill-7"
           points="0.0756949153 0 0.0756949153 4.78630508 4.862 0"
           style="fill:#ffffff" />
        <polygon
           id="Fill-8"
           points="10.6722373 0 0.0756949153 10.5965424 0.0756949153 13.9334576 14.0091525 0"
           style="fill:#ffffff" />
        <path
           d="M11.8214576,21.481322 C11.7136949,21.3795254 11.578339,21.3109153 11.4120339,21.2747458 C11.2882373,21.2467797 11.0466102,21.2322373 10.6852881,21.2322373 L10.2877966,21.2322373 L10.2877966,24.1325085 L10.9474237,24.1325085 C11.1950169,24.1325085 11.3728814,24.1179661 11.4821356,24.09 C11.6249492,24.0538305 11.7442712,23.9941695 11.8389831,23.9080339 C11.9336949,23.8222712 12.0108814,23.6824407 12.0720339,23.4855593 C12.1316949,23.2905424 12.1622712,23.0224407 12.1622712,22.6831186 C12.1622712,22.3437966 12.1331864,22.0846441 12.0720339,21.9023051 C12.0123729,21.723322 11.9292203,21.582 11.8214576,21.481322 L11.8214576,21.481322 Z"
           id="Fill-9"
           style="fill:#ffffff" />
        <path
           d="M7.27566102,21.2628136 C7.16938983,21.2441695 6.9579661,21.2337288 6.63915254,21.2337288 L6.21220339,21.2337288 L6.21220339,22.4761695 L6.69583051,22.4761695 C7.04410169,22.4761695 7.27864407,22.4530508 7.39498305,22.4079322 C7.51169492,22.3628136 7.60491525,22.2912203 7.67166102,22.1924068 C7.73877966,22.0947119 7.77233898,21.9809831 7.77233898,21.8527119 C7.77233898,21.6927458 7.72572881,21.5614915 7.63101695,21.4582034 C7.53779661,21.3534237 7.41847458,21.2877966 7.27566102,21.2628136 L7.27566102,21.2628136 Z"
           id="Fill-10"
           style="fill:#ffffff" />
        <path
           d="m 21.924305,17.315864 -21.84861008,0 0,10.650238 21.84861008,0 z"
           id="Fill-11"
           inkscape:connector-curvature="0"
           sodipodi:nodetypes="ccccc"
           style="fill:#ffffff" />
      </g>
    </g>
  </g>
</svg>

<?xml version="1.0" encoding="UTF-8" standalone="no"?>
<svg
   xmlns:dc="http://purl.org/dc/elements/1.1/"
   xmlns:cc="http://creativecommons.org/ns#"
   xmlns:rdf="http://www.w3.org/1999/02/22-rdf-syntax-ns#"
   xmlns:svg="http://www.w3.org/2000/svg"
   xmlns="http://www.w3.org/2000/svg"
   xmlns:sodipodi="http://sodipodi.sourceforge.net/DTD/sodipodi-0.dtd"
   xmlns:inkscape="http://www.inkscape.org/namespaces/inkscape"
   width="20"
   height="20"
   viewBox="0 0 20 20"
   version="1.1"
   id="svg2"
   inkscape:version="0.48.4 r9939"
   sodipodi:docname="file.svg">
  <metadata
     id="metadata27">
    <rdf:RDF>
      <cc:Work
         rdf:about="">
        <dc:format>image/svg+xml</dc:format>
        <dc:type
           rdf:resource="http://purl.org/dc/dcmitype/StillImage" />
        <dc:title>my_pdf_templates_dark</dc:title>
      </cc:Work>
    </rdf:RDF>
  </metadata>
  <sodipodi:namedview
     pagecolor="#ffffff"
     bordercolor="#666666"
     borderopacity="1"
     objecttolerance="10"
     gridtolerance="10"
     guidetolerance="10"
     inkscape:pageopacity="0"
     inkscape:pageshadow="2"
     inkscape:window-width="1855"
     inkscape:window-height="1056"
     id="namedview25"
     showgrid="false"
     inkscape:zoom="11.125147"
     inkscape:cx="-27.733454"
     inkscape:cy="24.368883"
     inkscape:window-x="65"
     inkscape:window-y="24"
     inkscape:window-maximized="1"
     inkscape:current-layer="Page-1" />
  <!-- Generator: Sketch 39.1 (31720) - http://www.bohemiancoding.com/sketch -->
  <title
     id="title4">my_pdf_templates_dark</title>
  <desc
     id="desc6">Created with Sketch.</desc>
  <defs
     id="defs8" />
  <g
     id="Page-1"
     style="fill:none;stroke:none"
     transform="translate(0,-10)">
    <g
       id="my_pdf_templates_dark"
       style="fill:#ffffff"
       transform="matrix(0.63384882,0,0,0.63384882,0.49226773,10.605972)">
      <g
         id="g12"
         transform="translate(4,1)"
         style="fill:#ffffff">
        <polygon
           id="Fill-1"
           points="20.99061,3.4025424 7.951322,16.44183 11.289729,16.44183 21.924305,5.8057627 21.924305,4.3362373 "
           style="fill:#ffffff" />
        <polygon
           id="Fill-2"
           points="6.7148475,16.44183 20.373119,2.7850509 18.703729,1.115661 3.3779322,16.44183 "
           style="fill:#ffffff" />
        <polygon
           id="Fill-3"
           points="21.924305,16.44183 21.924305,11.616 17.098475,16.44183 "
           style="fill:#ffffff" />
        <polygon
           id="Fill-4"
           points="21.924305,7.0426102 12.525085,16.44183 15.862,16.44183 21.924305,10.381017 "
           style="fill:#ffffff" />
        <polygon
           id="Fill-5"
           points="6.0984746,0 0.075694915,6.0227797 0.075694915,9.3600678 9.4357627,0 "
           style="fill:#ffffff" />
        <polygon
           id="Fill-6"
           points="15.246,0 0.075694915,15.170305 0.075694915,16.44183 2.1410848,16.44183 18.086237,0.49816949 17.588068,0 "
           style="fill:#ffffff" />
        <polygon
           id="Fill-7"
           points="4.862,0 0.075694915,0 0.075694915,4.7863051 "
           style="fill:#ffffff" />
        <polygon
           id="Fill-8"
           points="10.672237,0 0.075694915,10.596542 0.075694915,13.933458 14.009153,0 "
           style="fill:#ffffff" />
        <path
           d="m 11.821458,21.481322 c -0.107763,-0.101797 -0.243119,-0.170407 -0.409424,-0.206576 -0.123797,-0.02797 -0.365424,-0.04251 -0.726746,-0.04251 l -0.397491,0 0,2.900271 0.659627,0 c 0.247593,0 0.425457,-0.01454 0.534712,-0.04251 0.142813,-0.03617 0.262135,-0.09583 0.356847,-0.181966 0.09471,-0.08576 0.171898,-0.225593 0.233051,-0.422475 0.05966,-0.195017 0.09024,-0.463118 0.09024,-0.80244 0,-0.339322 -0.02909,-0.598475 -0.09024,-0.780814 -0.05966,-0.17898 -0.142814,-0.320302 -0.250576,-0.42098 l 0,0 z"
           id="Fill-9"
           style="fill:#ffffff"
           inkscape:connector-curvature="0" />
        <path
           d="M 7.275661,21.262814 C 7.1693898,21.24417 6.9579661,21.233729 6.6391525,21.233729 l -0.4269491,0 0,1.24244 0.4836271,0 c 0.3482712,0 0.5828136,-0.02312 0.6991525,-0.06824 0.1167119,-0.04512 0.2099323,-0.116712 0.276678,-0.215525 0.067119,-0.09769 0.100678,-0.211424 0.100678,-0.339695 0,-0.159966 -0.04661,-0.291221 -0.1413221,-0.394509 -0.09322,-0.104779 -0.2125423,-0.170406 -0.3553559,-0.195389 l 0,0 z"
           id="Fill-10"
           style="fill:#ffffff"
           inkscape:connector-curvature="0" />
        <path
           d="m 21.924305,17.315864 -21.84861008,0 0,10.650238 21.84861008,0 z"
           id="Fill-11"
           inkscape:connector-curvature="0"
           sodipodi:nodetypes="ccccc"
           style="fill:#ffffff" />
      </g>
    </g>
  </g>
</svg>
